!!!COM: Felix Mendelssohn
!!!CNT: Deutsch
!!!TXO: Deutsch
!!!OTL: Pagenlied
!!!LYR: Eichendorff
!!!ENC: Daniel Alt & Leigh VanHandel
!!!YOR: Sa2mmtliche Lieder fu2r eine Singstimme 
!!!YOR: Neu revidirt von Dr. L. Benda, Ausgabe fu2r mittlere Stimme
!!!YOR: Braunschweig. Henry Litolff's Verlag. Boston and New York: Arthur P. Schmidt.
!!!ODT: 1832/
**kern
*staff1
=1-
*clefG2
*k[]
*M6/8
2.r
=2
2.r
=3
2.r
=4
4r
8r
8r
{8b
8cc
=5
4dd
8cc
4b
8a
=6
4a-
8an
4b
8e
=7
8.cc
16b
8a
4b
8e
=8
[2.a
=9
2.a]}
=10
4r
8r
{4b
8e
=11
4cc
8b
8a
8g
8a
=12
4b
8a
8g
8a
8b
=13
4cc
8b
8a
8g
8a
=14
4.b}
8r
{8dd-
8ee-
=15
4ee
8dd
4cc
8b
=16
4dd
8cc
4b
8a
=17
4b
8a
4g
8g-
=18
[2.e
=19
4e]
8g
4g-
8b
=20
[2.e
=21
4e]
8g
4g-
8b
=22
2.e}
=23
2.r
=24
2.r
=25
2.r
=26
4r
8r
8r
{8b
8cc
=27
4dd
8cc
4b
8a
=28
4a-
8an
4b
8e
=29
4cc
8b
8a
8a-
8an
=30
[2.ee
=31
2.ee_
=32
8ee]}
8r
8r
{4ee
8dd
=33
4cc
8b
8a
8g
8a
=34
4.b
8a-
8ee
8dd
=35
4cc
8b
8a
8g
8a
=36
[4.b
8b]}
{8dd-
8ee-
=37
4ee
8dd
4cc
8b
=38
4dd
8cc
4b
8a
=39
4e
8a
4cc
8b
=40
[2.a
=41
4a]
8cc
4b
8ee
=42
[2.a
=43
4a]
8cc
4b
8ee
=44
2.a}
==
*-